X: 1
T: THE PRIMROSE LASS -- REEL
B: Ryan's Mammoth Collection of Fiddle Tunes
R: reel
M: C|
L: 1/8
Z: Contributed 20010523193831 by John Chambers jc:trillian.mit.edu
K: G
 VBcAB G2GE | DEGA BAA2 | BcAB G2GE | DEGA BGG2 \
| BcAB G2GE | DEGA BAA2 | dcBA GFED | (DE)GA BGG2 :|
|: Bdgd edgd | Bdgd eAA2 | Bdgd edgd | BdAc BGG2 \
|  Bdgd edgd | Bdgd eAA2 | bgaf gedc | BcAc BGG2 :|
